icons/calendar-17.svg

<svg width="16" height="17" viewBox="0 0 16 17" fill="none" xmlns="http://www.w3.org/2000/svg">
<path fill-rule="evenodd" clip-rule="evenodd" d="M5.5625 2.20044C5.87316 2.20044 6.125 2.45228 6.125 2.76294V3.70044H9.875V2.76294C9.875 2.45228 10.1268 2.20044 10.4375 2.20044C10.7482 2.20044 11 2.45228 11 2.76294V3.70044H11.9375C12.6624 3.70044 13.25 4.28807 13.25 5.01294V12.8879C13.25 13.6128 12.6624 14.2004 11.9375 14.2004H4.0625C3.33763 14.2004 2.75 13.6128 2.75 12.8879V5.01294C2.75 4.28807 3.33763 3.70044 4.0625 3.70044H5V2.76294C5 2.45228 5.25184 2.20044 5.5625 2.20044ZM11.9375 4.82544C12.0411 4.82544 12.125 4.90939 12.125 5.01294V6.70044H3.875V5.01294C3.875 4.90939 3.95895 4.82544 4.0625 4.82544H11.9375ZM3.875 7.82544V12.8879C3.875 12.9915 3.95895 13.0754 4.0625 13.0754H11.9375C12.0411 13.0754 12.125 12.9915 12.125 12.8879V7.82544H3.875Z" fill="#272431"/>
</svg>

<svg xmlns="http://www.w3.org/2000/svg" width="16" height="17" viewBox="0 0 16 17"><path fill-rule="evenodd" d="M5.563 2.2c.31 0 .562.252.562.563V3.7h3.75v-.937a.562.562 0 111.125 0V3.7h.938c.724 0 1.312.588 1.312 1.313v7.875c0 .725-.588 1.312-1.313 1.312H4.064a1.312 1.312 0 01-1.313-1.312V5.013c0-.725.588-1.313 1.313-1.313H5v-.937c0-.31.252-.563.563-.563zm6.375 2.625c.103 0 .187.084.187.188V6.7h-8.25V5.013c0-.104.084-.188.188-.188h7.875zm-8.063 3v5.063c0 .104.084.187.188.187h7.875a.187.187 0 00.187-.187V7.825h-8.25z"/></svg>
